X:125
T:Jacket Trimmed in Blue
R:polka
M:2/4
L:1/8
K:G
D|GA/B/ ce|dB B2|de/d/ cA|GB B2|
GA/B/ ce|dB B2|de/d/ cF|AG G:|
|:z|de/f/ ge|dB B2|de/d/ cA|GB B2|
de/f/ ge|dB B2|de/d/ cF|AG G:|
